X: 4155
T: Blue Ice
R: jig
M: 6/8
K: Eminor
|:"Em" EEE GEG|"D" DDD AFD|"Em" EEE GEG|"D" DEF GFD|
"Em" EEE GEG|"D" DDD AFD|"Em" EEE GEG|1 "D" DGF "Em" E3:|2 "D" DEF "G" G2 G||
|:"G" GDG BGB|d2 d dcB|"D" A2 A ABA|"G" GDE BAG|
GDG BGB|d2 d dcB|"D" A2 A ABA|1 "G" GDE G2 G:|2 "G" GD^D "Em" E3||

